images/sprite/icons.svg

<svg version="1.1" xmlns="http://www.w3.org/2000/svg" xmlns:xlink="http://www.w3.org/1999/xlink">
    <symbol id="cloud" viewBox="0 0 64 64">
        <path id="cloud" fill="#42adf4"  d="M48.147892,18.941c-1.2983971,0-2.5535965,0.1753006-3.7612991,0.4729996
            C40.9443932,15.4881001,35.9338951,13,30.3371944,13c-8.1797009,0-15.119194,5.2947998-17.6996002,12.6723003
            c-0.0374994-0.0002995-0.0735941-0.0056-0.1110992-0.0056C5.608295,25.6667004,0,31.3377991,0,38.3334007
            C0,45.3288994,5.608295,51,12.526495,51c3.0087996,0,32.4916,0,35.6213989,0C56.9027939,51,64,43.8232994,64,34.9705009
            C64,26.1175995,56.9027939,18.941,48.147892,18.941z M48.147892,48.9006004H12.526495
            c-5.749495,0-10.4271002-4.7404022-10.4271002-10.5671997c0-5.8087006,4.6484995-10.5377998,10.3733997-10.5672016
            c0.0489006,0.0031013,0.0979004,0.0051003,0.1476002,0.0055008l1.5026999,0.0123005l0.4962006-1.4185009
            c2.3568993-6.7385998,8.673399-11.2660999,15.7178993-11.2660999c4.7499981,0,9.2954998,2.0771008,12.4708042,5.6987
            l0.8415947,0.9598999l1.2396011-0.3055992c1.1086998-0.2733994,2.205101-0.4120007,3.2586975-0.4120007
            c7.5833015,0,13.7527008,6.2490005,13.7527008,13.9301014S55.7311935,48.9006004,48.147892,48.9006004z"/>
    </symbol>

    <symbol id="cloud-computing" viewBox="0 0 64 64">
        <g id="Refresh_1_">
            <path  d="M48.7919998,22.6142502c-0.4766006,0-0.9570999,0.0224991-1.4336014,0.0664005
                c-2.7841988-7.0195007-9.6025848-11.6797009-17.2167988-11.6797009c-9.6581993,0-17.5868988,7.3096008-18.4403992,16.8076
                C5.1699009,28.2822495,0.0010008,33.7431488,0.0010008,40.3867493c0,6.9550018,5.6629996,12.6123009,12.6240005,12.6123009
                h36.1669998c8.3857002,0,15.2070007-6.8154984,15.2070007-15.1924019
                C63.9990005,29.4296494,57.1777,22.6142502,48.7919998,22.6142502z M48.7919998,51.0009499H12.625001
                c-5.8594003,0-10.6260004-4.7616997-10.6260004-10.6142006c0-5.8516006,4.7665997-10.6132984,10.6406002-10.6132984
                c0.5362139,0,0.9765997-0.4229012,0.9990997-0.9580002c0.3603001-8.8691998,7.6093006-15.8164005,16.5028992-15.8164005
                c7.0342159,0,13.3076,4.4589996,15.6093998,11.0946999c0.1581993,0.4550991,0.6268997,0.7313995,1.089817,0.6620998
                c0.6444817-0.0946999,1.3007812-0.1434994,1.9511833-0.1434994c7.2831993,0,13.2089996,5.9188995,13.2089996,13.1942978
                S56.0751991,51.0009499,48.7919998,51.0009499z"/>
            <path fill="#42adf4" d="M32.4968147,25.40415l0.7804871-0.6707001c0.4189987-0.3603992,0.4667969-0.9913006,0.1075134-1.4102001
                c-0.3604164-0.419899-0.9922142-0.4657993-1.4102154-0.107399l-2.8262005,2.4277
                c-0.4188995,0.3603992-0.4667988,0.9911995-0.107399,1.4101982l2.4277,2.8271008
                c0.1982994,0.2304993,0.4776001,0.3486004,0.7588005,0.3486004c0.2314987,0,0.4628983-0.0790997,0.6513977-0.2411995
                c0.4189148-0.3603001,0.4668007-0.9912014,0.1074028-1.4101009l-1.0659008-1.2411003
                c3.7255001,0.3786011,6.6420994,3.5335007,6.6420994,7.3573017c0,4.0780983-3.3174019,7.3964996-7.3955002,7.3964996
                s-7.3955002-3.3184013-7.3955002-7.3964996c0-0.5527-0.4473-1-1-1c-0.5527992,0-1,0.4473-1,1
                c0,5.1815987,4.2147999,9.3964996,9.3955002,9.3964996c5.1805992,0,9.3955002-4.214901,9.3955002-9.3964996
                C40.5625,29.9661503,37.0483017,26.0535507,32.4968147,25.40415z"/>
        </g>
    </symbol>

    <symbol id="facebook" viewBox="0 0 26 26">
        <path d="M25.5938 13.25C25.5938 6.29297 19.957 0.65625 13 0.65625C6.04297 0.65625 0.40625 6.29297 0.40625 13.25C0.40625 19.5469 4.97656 24.7773 11.0195 25.6914V16.9062H7.82031V13.25H11.0195V10.5078C11.0195 7.35938 12.8984 5.58203 15.7422 5.58203C17.1641 5.58203 18.5859 5.83594 18.5859 5.83594V8.93359H17.0117C15.4375 8.93359 14.9297 9.89844 14.9297 10.9141V13.25H18.4336L17.875 16.9062H14.9297V25.6914C20.9727 24.7773 25.5938 19.5469 25.5938 13.25Z"/>
    </symbol>

    <symbol id="github" viewBox="0 0 26 26">
        <path d="M8.37891 20.4609C8.37891 20.3594 8.27734 20.2578 8.125 20.2578C7.97266 20.2578 7.87109 20.3594 7.87109 20.4609C7.87109 20.5625 7.97266 20.6641 8.125 20.6133C8.27734 20.6133 8.37891 20.5625 8.37891 20.4609ZM6.80469 20.207C6.80469 20.3086 6.90625 20.4609 7.05859 20.4609C7.16016 20.5117 7.3125 20.4609 7.36328 20.3594C7.36328 20.2578 7.3125 20.1562 7.16016 20.1055C7.00781 20.0547 6.85547 20.1055 6.80469 20.207ZM9.08984 20.1562C8.9375 20.1562 8.83594 20.2578 8.83594 20.4102C8.83594 20.5117 8.98828 20.5625 9.14062 20.5117C9.29297 20.4609 9.39453 20.4102 9.34375 20.3086C9.34375 20.207 9.19141 20.1055 9.08984 20.1562ZM12.3906 0.65625C5.38281 0.65625 0 6.03906 0 13.0469C0 18.6836 3.50391 23.5078 8.58203 25.2344C9.24219 25.3359 9.44531 24.9297 9.44531 24.625C9.44531 24.2695 9.44531 22.543 9.44531 21.4766C9.44531 21.4766 5.89062 22.2383 5.12891 19.9531C5.12891 19.9531 4.57031 18.4805 3.75781 18.125C3.75781 18.125 2.58984 17.3125 3.80859 17.3125C3.80859 17.3125 5.07812 17.4141 5.78906 18.6328C6.90625 20.6133 8.73438 20.0547 9.49609 19.6992C9.59766 18.8867 9.90234 18.3281 10.3086 17.9727C7.46484 17.668 4.57031 17.2617 4.57031 12.3867C4.57031 10.9648 4.97656 10.3047 5.78906 9.39062C5.63672 9.03516 5.23047 7.71484 5.94141 5.9375C6.95703 5.63281 9.44531 7.30859 9.44531 7.30859C10.4609 7.00391 11.5273 6.90234 12.5938 6.90234C13.7109 6.90234 14.7773 7.00391 15.793 7.30859C15.793 7.30859 18.2305 5.58203 19.2969 5.9375C20.0078 7.71484 19.5508 9.03516 19.4492 9.39062C20.2617 10.3047 20.7695 10.9648 20.7695 12.3867C20.7695 17.2617 17.7734 17.668 14.9297 17.9727C15.3867 18.3789 15.793 19.1406 15.793 20.3594C15.793 22.0352 15.7422 24.168 15.7422 24.5742C15.7422 24.9297 15.9961 25.3359 16.6562 25.1836C21.7344 23.5078 25.1875 18.6836 25.1875 13.0469C25.1875 6.03906 19.4492 0.65625 12.3906 0.65625ZM4.92578 18.1758C4.82422 18.2266 4.875 18.3789 4.92578 18.4805C5.02734 18.5312 5.12891 18.582 5.23047 18.5312C5.28125 18.4805 5.28125 18.3281 5.17969 18.2266C5.07812 18.1758 4.97656 18.125 4.92578 18.1758ZM4.36719 17.7695C4.31641 17.8711 4.36719 17.9219 4.46875 17.9727C4.57031 18.0234 4.67188 18.0234 4.72266 17.9219C4.72266 17.8711 4.67188 17.8203 4.57031 17.7695C4.46875 17.7188 4.41797 17.7188 4.36719 17.7695ZM5.99219 19.5977C5.94141 19.6484 5.94141 19.8008 6.09375 19.9023C6.19531 20.0039 6.34766 20.0547 6.39844 19.9531C6.44922 19.9023 6.44922 19.75 6.34766 19.6484C6.24609 19.5469 6.09375 19.4961 5.99219 19.5977ZM5.43359 18.8359C5.33203 18.8867 5.33203 19.0391 5.43359 19.1406C5.53516 19.2422 5.63672 19.293 5.73828 19.2422C5.78906 19.1914 5.78906 19.0391 5.73828 18.9375C5.63672 18.8359 5.53516 18.7852 5.43359 18.8359Z"/>
    </symbol>

    <symbol id="instagram" viewBox="0 0 24 24">
        <path d="M12.375 6.41016C9.125 6.41016 6.53516 9.05078 6.53516 12.25C6.53516 15.5 9.125 18.0898 12.375 18.0898C15.5742 18.0898 18.2148 15.5 18.2148 12.25C18.2148 9.05078 15.5742 6.41016 12.375 6.41016ZM12.375 16.0586C10.293 16.0586 8.56641 14.3828 8.56641 12.25C8.56641 10.168 10.2422 8.49219 12.375 8.49219C14.457 8.49219 16.1328 10.168 16.1328 12.25C16.1328 14.3828 14.457 16.0586 12.375 16.0586ZM19.7891 6.20703C19.7891 5.44531 19.1797 4.83594 18.418 4.83594C17.6562 4.83594 17.0469 5.44531 17.0469 6.20703C17.0469 6.96875 17.6562 7.57812 18.418 7.57812C19.1797 7.57812 19.7891 6.96875 19.7891 6.20703ZM23.6484 7.57812C23.5469 5.75 23.1406 4.125 21.8203 2.80469C20.5 1.48438 18.875 1.07812 17.0469 0.976562C15.168 0.875 9.53125 0.875 7.65234 0.976562C5.82422 1.07812 4.25 1.48438 2.87891 2.80469C1.55859 4.125 1.15234 5.75 1.05078 7.57812C0.949219 9.45703 0.949219 15.0938 1.05078 16.9727C1.15234 18.8008 1.55859 20.375 2.87891 21.7461C4.25 23.0664 5.82422 23.4727 7.65234 23.5742C9.53125 23.6758 15.168 23.6758 17.0469 23.5742C18.875 23.4727 20.5 23.0664 21.8203 21.7461C23.1406 20.375 23.5469 18.8008 23.6484 16.9727C23.75 15.0938 23.75 9.45703 23.6484 7.57812ZM21.2109 18.9531C20.8555 19.9688 20.043 20.7305 19.0781 21.1367C17.5547 21.7461 14 21.5938 12.375 21.5938C10.6992 21.5938 7.14453 21.7461 5.67188 21.1367C4.65625 20.7305 3.89453 19.9688 3.48828 18.9531C2.87891 17.4805 3.03125 13.9258 3.03125 12.25C3.03125 10.625 2.87891 7.07031 3.48828 5.54688C3.89453 4.58203 4.65625 3.82031 5.67188 3.41406C7.14453 2.80469 10.6992 2.95703 12.375 2.95703C14 2.95703 17.5547 2.80469 19.0781 3.41406C20.043 3.76953 20.8047 4.58203 21.2109 5.54688C21.8203 7.07031 21.668 10.625 21.668 12.25C21.668 13.9258 21.8203 17.4805 21.2109 18.9531Z"/>
    </symbol>

    <symbol id="linkedin" viewBox="0 0 23 24">
        <path d="M21.125 0.875H1.57422C0.710938 0.875 0 1.63672 0 2.55078V22C0 22.9141 0.710938 23.625 1.57422 23.625H21.125C21.9883 23.625 22.75 22.9141 22.75 22V2.55078C22.75 1.63672 21.9883 0.875 21.125 0.875ZM6.85547 20.375H3.50391V9.55859H6.85547V20.375ZM5.17969 8.03516C4.0625 8.03516 3.19922 7.17188 3.19922 6.10547C3.19922 5.03906 4.0625 4.125 5.17969 4.125C6.24609 4.125 7.10938 5.03906 7.10938 6.10547C7.10938 7.17188 6.24609 8.03516 5.17969 8.03516ZM19.5 20.375H16.0977V15.0938C16.0977 13.875 16.0977 12.25 14.3711 12.25C12.5938 12.25 12.3398 13.6211 12.3398 15.043V20.375H8.98828V9.55859H12.1875V11.0312H12.2383C12.6953 10.168 13.8125 9.25391 15.4375 9.25391C18.8398 9.25391 19.5 11.5391 19.5 14.4336V20.375Z"/>
    </symbol>

    <symbol id="viber" viewBox="0 0 26 27">
        <path d="M22.5469 2.78906C21.8867 2.23047 19.2461 0.300781 13.457 0.300781C13.457 0.300781 6.60156 -0.105469 3.25 2.94141C1.37109 4.82031 0.710938 7.51172 0.660156 10.9141C0.609375 14.2656 0.507812 20.6133 6.60156 22.3398V24.9297C6.60156 24.9297 6.55078 25.9961 7.26172 26.25C8.125 26.5039 8.58203 25.6914 9.39453 24.8281C9.85156 24.3203 10.4609 23.6602 10.918 23.1016C15.082 23.457 18.2812 22.6445 18.6875 22.543C19.5 22.2383 24.2734 21.6289 25.0352 15.332C25.8477 8.78125 24.6797 4.66797 22.5469 2.78906ZM23.207 14.8242C22.5977 20.1055 18.6875 20.4609 17.9766 20.7148C17.6719 20.7656 14.8789 21.4766 11.3242 21.2734C11.3242 21.2734 8.68359 24.4219 7.87109 25.2852C7.61719 25.5391 7.3125 25.5391 7.3125 24.9805C7.3125 24.625 7.3125 20.6133 7.3125 20.6133C2.18359 19.1914 2.48828 13.8086 2.53906 11.0156C2.58984 8.17188 3.09766 5.88672 4.67188 4.3125C7.51562 1.72266 13.3555 2.12891 13.3555 2.12891C18.2812 2.12891 20.6172 3.65234 21.1758 4.10938C23.0039 5.68359 23.918 9.39062 23.207 14.8242ZM16.1484 10.7617C16.0977 9.28906 15.3359 8.47656 13.9141 8.375C13.457 8.375 13.4062 9.03516 13.8633 9.03516C14.9297 9.13672 15.4375 9.64453 15.5391 10.7617C15.5391 11.2188 16.1992 11.168 16.1484 10.7617ZM17.2148 11.3203C17.2148 11.7266 17.875 11.7773 17.875 11.3203C17.9258 8.88281 16.3516 6.85156 13.4062 6.64844C12.9492 6.59766 12.8984 7.25781 13.3555 7.30859C15.8945 7.46094 17.2656 9.1875 17.2148 11.3203ZM19.6016 11.9805C19.5508 7.5625 16.5547 4.97266 12.7969 4.92188C12.3906 4.92188 12.3906 5.58203 12.7969 5.58203C16.1484 5.63281 18.8906 7.86719 18.9414 11.9805C18.9414 12.4375 19.6016 12.4375 19.6016 11.9805ZM18.9922 16.957C19.2461 16.5 19.1953 16.0938 18.8398 15.7891C18.1797 15.1797 17.2656 14.5195 16.5039 14.1133C15.9453 13.8086 15.3867 14.0117 15.1328 14.3164L14.6758 14.9258C14.4219 15.2305 13.9648 15.1797 13.9648 15.1797C10.5625 14.3164 9.64844 10.9141 9.64844 10.9141C9.64844 10.9141 9.64844 10.457 9.95312 10.2031L10.5625 9.69531C10.8672 9.44141 11.0195 8.88281 10.7148 8.32422C10.5625 8.01953 10.207 7.46094 9.95312 7.15625C9.69922 6.75 9.03906 6.03906 9.03906 6.03906C8.78516 5.63281 8.32812 5.58203 7.87109 5.83594H7.82031C6.85547 6.34375 5.78906 7.41016 6.14453 8.42578C6.14453 8.42578 6.39844 9.33984 7.46484 11.2695C7.97266 12.2344 8.53125 12.9961 9.03906 13.6562C9.59766 14.3672 10.3594 15.1289 11.1719 15.7891C12.7969 17.0586 15.2852 18.3789 16.3516 18.6836H16.4023C17.418 19.0391 18.4844 17.9727 18.9922 17.0078V16.957Z"/>
    </symbol>

</svg>

<svg viewBox="0 0 26 27" xmlns="http://www.w3.org/2000/svg" xmlns:xlink="http://www.w3.org/1999/xlink"><style>:root&gt;svg{display:none}:root&gt;svg:target{display:block}</style><svg fill="none" viewBox="0 0 26 26" id="facebook" xmlns="http://www.w3.org/2000/svg"><path d="M25.594 13.25C25.594 6.293 19.957.656 13 .656S.406 6.293.406 13.25c0 6.297 4.57 11.527 10.614 12.441v-8.785h-3.2V13.25h3.2v-2.742c0-3.149 1.878-4.926 4.722-4.926 1.422 0 2.844.254 2.844.254v3.098h-1.574c-1.575 0-2.082.964-2.082 1.98v2.336h3.504l-.559 3.656H14.93v8.785c6.043-.914 10.664-6.144 10.664-12.441z" fill="hsl(0, 0%, 100%)"/></svg><svg fill="none" viewBox="0 0 26 26" id="git" xmlns="http://www.w3.org/2000/svg"><path d="M8.379 20.46c0-.1-.102-.202-.254-.202-.152 0-.254.101-.254.203 0 .102.102.203.254.152.152 0 .254-.05.254-.152zm-1.574-.253c0 .102.101.254.254.254.101.05.253 0 .304-.102 0-.101-.05-.203-.203-.254-.152-.05-.305 0-.355.102zm2.285-.05c-.152 0-.254.1-.254.253 0 .102.152.152.305.102.152-.051.254-.102.203-.203 0-.102-.153-.204-.254-.153zm3.3-19.5C5.384.656 0 6.038 0 13.046c0 5.637 3.504 10.46 8.582 12.187.66.102.863-.304.863-.609v-3.148s-3.554.761-4.316-1.524c0 0-.559-1.473-1.371-1.828 0 0-1.168-.813.05-.813 0 0 1.27.102 1.981 1.32 1.117 1.981 2.945 1.423 3.707 1.067.102-.812.406-1.37.813-1.726-2.844-.305-5.739-.711-5.739-5.586 0-1.422.407-2.082 1.22-2.996-.153-.356-.56-1.676.151-3.454C6.957 5.633 9.445 7.31 9.445 7.31c1.016-.305 2.082-.407 3.149-.407 1.117 0 2.183.102 3.199.407 0 0 2.438-1.727 3.504-1.372.71 1.778.254 3.098.152 3.454.813.914 1.32 1.574 1.32 2.996 0 4.875-2.996 5.281-5.84 5.586.458.406.864 1.168.864 2.386 0 1.676-.05 3.809-.05 4.215 0 .356.253.762.913.61 5.078-1.676 8.532-6.5 8.532-12.137 0-7.008-5.739-12.39-12.797-12.39zM4.927 18.175c-.102.05-.051.203 0 .305.101.05.203.101.304.05.051-.05.051-.203-.05-.304-.102-.051-.203-.102-.254-.051zm-.559-.406c-.05.101 0 .152.102.203.101.05.203.05.254-.051 0-.05-.051-.102-.153-.152-.101-.051-.152-.051-.203 0zm1.625 1.828c-.05.05-.05.203.102.304.101.102.254.153.304.051.051-.05.051-.203-.05-.305-.102-.101-.254-.152-.356-.05zm-.558-.762c-.102.05-.102.203 0 .305.101.101.203.152.304.101.051-.05.051-.203 0-.305-.101-.101-.203-.152-.304-.101z" fill="#212121"/></svg><svg fill="none" viewBox="0 0 24 24" id="instagram" xmlns="http://www.w3.org/2000/svg"><path d="M12.375 6.41a5.84 5.84 0 00-5.84 5.84c0 3.25 2.59 5.84 5.84 5.84 3.2 0 5.84-2.59 5.84-5.84 0-3.2-2.64-5.84-5.84-5.84zm0 9.649a3.803 3.803 0 01-3.809-3.809c0-2.082 1.676-3.758 3.809-3.758a3.75 3.75 0 013.758 3.758c0 2.133-1.676 3.809-3.758 3.809zm7.414-9.852c0-.762-.61-1.371-1.371-1.371-.762 0-1.371.61-1.371 1.371 0 .762.61 1.371 1.371 1.371.762 0 1.371-.61 1.371-1.371zm3.86 1.371c-.102-1.828-.508-3.453-1.829-4.773-1.32-1.32-2.945-1.727-4.773-1.828-1.879-.102-7.516-.102-9.395 0-1.828.101-3.402.507-4.773 1.828-1.32 1.32-1.727 2.945-1.828 4.773-.102 1.879-.102 7.516 0 9.395.101 1.828.508 3.402 1.828 4.773 1.371 1.32 2.945 1.727 4.773 1.828 1.88.102 7.516.102 9.395 0 1.828-.101 3.453-.508 4.773-1.828 1.32-1.371 1.727-2.945 1.828-4.773.102-1.88.102-7.516 0-9.395zM21.21 18.953c-.355 1.016-1.168 1.777-2.133 2.184-1.523.61-5.078.457-6.703.457-1.676 0-5.23.152-6.703-.457a3.85 3.85 0 01-2.184-2.184c-.61-1.473-.457-5.027-.457-6.703 0-1.625-.152-5.18.457-6.703a3.917 3.917 0 012.184-2.133c1.473-.61 5.027-.457 6.703-.457 1.625 0 5.18-.152 6.703.457.965.356 1.727 1.168 2.133 2.133.61 1.523.457 5.078.457 6.703 0 1.676.152 5.23-.457 6.703z" fill="#212121"/></svg><svg fill="none" viewBox="0 0 23 24" id="linkedin" xmlns="http://www.w3.org/2000/svg"><path d="M21.125.875H1.575C.71.875 0 1.637 0 2.551V22c0 .914.71 1.625 1.574 1.625h19.551c.863 0 1.625-.71 1.625-1.625V2.55c0-.913-.762-1.675-1.625-1.675zm-14.27 19.5H3.504V9.559h3.351v10.816zM5.18 8.035c-1.117 0-1.98-.863-1.98-1.93 0-1.066.862-1.98 1.98-1.98 1.066 0 1.93.914 1.93 1.98a1.93 1.93 0 01-1.93 1.93zm14.32 12.34h-3.402v-5.281c0-1.219 0-2.844-1.727-2.844-1.777 0-2.031 1.371-2.031 2.793v5.332H8.988V9.559h3.2v1.472h.05c.457-.863 1.575-1.777 3.2-1.777 3.402 0 4.062 2.285 4.062 5.18v5.941z" fill="#212121"/></svg><svg fill="none" viewBox="0 0 26 27" id="viber" xmlns="http://www.w3.org/2000/svg"><path d="M22.547 2.79c-.66-.56-3.3-2.49-9.09-2.49 0 0-6.855-.405-10.207 2.641C1.371 4.821.71 7.511.66 10.914c-.05 3.352-.152 9.7 5.942 11.426v2.59s-.051 1.066.66 1.32c.863.254 1.32-.559 2.133-1.422.457-.508 1.066-1.168 1.523-1.726 4.164.355 7.363-.457 7.77-.559.812-.305 5.585-.914 6.347-7.211.813-6.55-.355-10.664-2.488-12.543zm.66 12.034c-.61 5.281-4.52 5.637-5.23 5.89-.305.052-3.098.763-6.653.56 0 0-2.64 3.148-3.453 4.011-.254.254-.559.254-.559-.305v-4.367c-5.128-1.422-4.824-6.804-4.773-9.597.05-2.844.559-5.13 2.133-6.704 2.844-2.59 8.683-2.183 8.683-2.183 4.926 0 7.262 1.523 7.82 1.98 1.829 1.575 2.743 5.282 2.032 10.715zm-7.059-4.062c-.05-1.473-.812-2.285-2.234-2.387-.457 0-.508.66-.05.66 1.066.102 1.573.61 1.675 1.727 0 .457.66.406.61 0zm1.067.558c0 .407.66.457.66 0 .05-2.437-1.523-4.468-4.469-4.672-.457-.05-.508.61-.05.66 2.539.153 3.91 1.88 3.859 4.012zm2.387.66c-.051-4.418-3.047-7.007-6.805-7.058-.406 0-.406.66 0 .66 3.351.05 6.094 2.285 6.144 6.398 0 .457.66.457.66 0zm-.61 4.977c.254-.457.203-.863-.152-1.168-.66-.61-1.574-1.27-2.336-1.676-.559-.304-1.117-.101-1.371.203l-.457.61c-.254.304-.711.254-.711.254-3.402-.864-4.317-4.266-4.317-4.266s0-.457.305-.71l.61-.509c.304-.254.457-.812.152-1.37a7.626 7.626 0 00-.762-1.169C9.7 6.75 9.04 6.04 9.04 6.04c-.254-.406-.71-.457-1.168-.203h-.05c-.966.508-2.032 1.574-1.676 2.59 0 0 .253.914 1.32 2.844.508.964 1.066 1.726 1.574 2.386.559.711 1.32 1.473 2.133 2.133 1.625 1.27 4.113 2.59 5.18 2.895h.05c1.016.355 2.082-.711 2.59-1.676v-.051z" fill="#212121"/></svg></svg>
